packages/ffe-icons/icons/open/400/sm/keyboard_option_key.svg

<svg xmlns="http://www.w3.org/2000/svg" height="20" viewBox="0 -960 960 960" width="20"><path d="M620-240q-20.087 0-36.522-9.45T557-276L342-648H180q-15.3 0-25.65-10.289-10.35-10.29-10.35-25.5Q144-699 154.35-709.5 164.7-720 180-720h162q20.087 0 36.522 9.45T405-684l215 372h160q15.3 0 25.65 10.289 10.35 10.29 10.35 25.5Q816-261 805.65-250.5 795.3-240 780-240H620Zm-8-408q-15.3 0-25.65-10.289-10.35-10.29-10.35-25.5Q576-699 586.35-709.5 596.7-720 612-720h168q15.3 0 25.65 10.289 10.35 10.29 10.35 25.5Q816-669 805.65-658.5 795.3-648 780-648H612Z"/></svg>

<svg xmlns="http://www.w3.org/2000/svg" height="20" viewBox="0 -960 960 960" width="20"><path d="M620-240q-20.09 0-36.52-9.45Q567.04-258.9 557-276L342-648H180q-15.3 0-25.65-10.29Q144-668.58 144-683.79t10.35-25.71Q164.7-720 180-720h162q20.09 0 36.52 9.45Q394.96-701.1 405-684l215 372h160q15.3 0 25.65 10.29Q816-291.42 816-276.21t-10.35 25.71Q795.3-240 780-240H620Zm-8-408q-15.3 0-25.65-10.29Q576-668.58 576-683.79t10.35-25.71Q596.7-720 612-720h168q15.3 0 25.65 10.29Q816-699.42 816-684.21t-10.35 25.71Q795.3-648 780-648H612Z"/></svg>
